src/assets/img/navbar/icon/games.svg

<?xml version="1.0" encoding="UTF-8" standalone="no"?>
<svg
   height="18.5"
   width="18"
   version="1.1"
   id="svg3981"
   sodipodi:docname="games.svg"
   inkscape:version="1.1 (c4e8f9ed74, 2021-05-24)"
   xmlns:inkscape="http://www.inkscape.org/namespaces/inkscape"
   xmlns:sodipodi="http://sodipodi.sourceforge.net/DTD/sodipodi-0.dtd"
   xmlns:xlink="http://www.w3.org/1999/xlink"
   xmlns="http://www.w3.org/2000/svg"
   xmlns:svg="http://www.w3.org/2000/svg">
  <sodipodi:namedview
     id="namedview3983"
     pagecolor="#505050"
     bordercolor="#eeeeee"
     borderopacity="1"
     inkscape:pageshadow="0"
     inkscape:pageopacity="0"
     inkscape:pagecheckerboard="0"
     showgrid="false"
     inkscape:zoom="31.074476"
     inkscape:cx="-0.86888029"
     inkscape:cy="8.3026339"
     inkscape:current-layer="svg3981" />
  <g
     transform="translate(-1.45,2.15)"
     id="g3933">
    <use
       height="50"
       transform="matrix(0.36,0,0,0.36,1.45,-1.65)"
       width="50"
       xlink:href="#sprite0"
       id="use3925"
       x="0"
       y="0" />
    <use
       height="17.950001"
       transform="translate(10.8,-1.65)"
       width="8.6499996"
       xlink:href="#sprite1"
       id="use3927"
       x="0"
       y="0" />
    <use
       height="16.450001"
       transform="translate(2.35,-2.15)"
       width="16.6"
       xlink:href="#sprite2"
       id="use3929"
       x="0"
       y="0" />
    <use
       height="16.450001"
       transform="translate(2.35,-2.15)"
       width="16.6"
       xlink:href="#sprite3"
       id="use3931"
       x="0"
       y="0" />
  </g>
  <defs
     id="defs3979">
    <g
       id="sprite0"
       transform="translate(25,25)">
      <use
         height="50"
         transform="translate(-25,-25)"
         width="50"
         xlink:href="#shape0"
         id="use3935"
         x="0"
         y="0" />
    </g>
    <g
       id="shape0"
       transform="translate(25,25)">
      <path
         d="M 25,0 Q 25,10.3 17.7,17.65 10.35,25 0,25 -10.35,25 -17.65,17.65 -25,10.3 -25,0 q 0,-10.35 7.35,-17.7 7.3,-7.35 17.65,-7.3 10.35,-0.05 17.7,7.3 Q 25,-10.35 25,0"
         fill="#ffffff"
         fill-rule="evenodd"
         stroke="none"
         id="path3938" />
    </g>
    <g
       id="sprite1">
      <use
         height="17.950001"
         width="8.6499996"
         xlink:href="#shape1"
         id="use3941"
         x="0"
         y="0" />
    </g>
    <g
       id="shape1">
      <path
         d="m 0,0 q 3.6,0.15 6.15,2.75 2.5,2.6 2.5,6.25 0,3.65 -2.5,6.25 Q 3.6,17.85 0,17.95 V 0"
         fill="url(#gradient0)"
         fill-rule="evenodd"
         stroke="none"
         id="path3944" />
    </g>
    <linearGradient
       gradientTransform="matrix(0.0053,0,0,0.011,4.3,8.95)"
       gradientUnits="userSpaceOnUse"
       id="gradient0"
       spreadMethod="pad"
       x1="-819.20001"
       x2="819.20001">
      <stop
         offset="0.0"
         stop-color="#ff9966"
         id="stop3947" />
      <stop
         offset="1.0"
         stop-color="#ff9966"
         stop-opacity="0.0"
         id="stop3949" />
    </linearGradient>
    <g
       id="sprite2">
      <use
         height="16.450001"
         width="16.6"
         xlink:href="#shape2"
         id="use3952"
         x="0"
         y="0" />
    </g>
    <g
       id="shape2">
      <path
         d="M 0,0.05 8.25,8.25 16.6,0 Q 11,11.55 8.4,11.55 6.75,11.55 3.2,5.8 L 0,0.05"
         fill="#ff3300"
         fill-rule="evenodd"
         stroke="none"
         id="path3955" />
      <path
         d="M 12,11.65 10.45,10.35 15.8,8.1 12,11.65"
         fill="#ff3300"
         fill-rule="evenodd"
         stroke="none"
         id="path3957" />
      <path
         d="M 4.75,11.65 0.95,8.1 6.3,10.35 4.75,11.65"
         fill="#ff3300"
         fill-rule="evenodd"
         stroke="none"
         id="path3959" />
      <path
         d="M 8.3,1.85 11.65,10.3 8.5,13.65 5.05,10.3 8.3,1.85"
         fill="#ff3300"
         fill-rule="evenodd"
         stroke="none"
         id="path3961" />
      <path
         d="M 10.1,14.5 13,13.7 v 1 l -3,1.75 0.1,-1.95"
         fill="#ff3300"
         fill-rule="evenodd"
         stroke="none"
         id="path3963" />
      <path
         d="m 7.2,14.5 0.05,1.95 -3,-1.75 v -1 l 2.95,0.8"
         fill="#ff3300"
         fill-rule="evenodd"
         stroke="none"
         id="path3965" />
    </g>
    <g
       id="sprite3">
      <use
         height="16.450001"
         width="16.6"
         xlink:href="#shape3"
         id="use3968"
         x="0"
         y="0" />
    </g>
    <g
       id="shape3">
      <path
         d="M 11.3,9.35 11.5,9.9 15.8,8.1 12,11.65 11.1,10.9 8.5,13.65 5.65,10.9 4.75,11.65 0.95,8.1 5.2,9.9 5.5,9.15 3.2,5.8 0,0.05 6.5,6.55 8.3,1.85 10.15,6.4 16.6,0 q -3.15,6.45 -5.3,9.35 m -4.05,7.1 -3,-1.75 v -1 l 2.95,0.8 0.05,1.95 m 2.75,0 0.1,-1.95 2.9,-0.8 v 1 l -3,1.75"
         fill="url(#gradient1)"
         fill-rule="evenodd"
         stroke="none"
         id="path3971" />
    </g>
    <linearGradient
       gradientTransform="matrix(0.0049,0,0,0.0083,8.3,6.8)"
       gradientUnits="userSpaceOnUse"
       id="gradient1"
       spreadMethod="pad"
       x1="-819.20001"
       x2="819.20001">
      <stop
         offset="0.0"
         stop-color="#ff9966"
         id="stop3974" />
      <stop
         offset="1.0"
         stop-color="#ff9966"
         stop-opacity="0.0"
         id="stop3976" />
    </linearGradient>
  </defs>
</svg>

<?xml version="1.0" encoding="UTF-8" standalone="no"?>
<svg xmlns:xlink="http://www.w3.org/1999/xlink" height="18.5px" width="18.35px" xmlns="http://www.w3.org/2000/svg">
  <g transform="matrix(1.0, 0.0, 0.0, 1.0, -1.1, 2.15)">
    <use height="50.0" transform="matrix(0.36, 0.0, 0.0, 0.36, 1.45, -1.65)" width="50.0" xlink:href="#sprite0"/>
    <use height="17.95" transform="matrix(1.0, 0.0, 0.0, 1.0, 10.8, -1.65)" width="8.65" xlink:href="#sprite1"/>
    <use height="16.45" transform="matrix(1.0, 0.0, 0.0, 1.0, 2.35, -2.15)" width="16.6" xlink:href="#sprite2"/>
    <use height="16.45" transform="matrix(1.0, 0.0, 0.0, 1.0, 2.35, -2.15)" width="16.6" xlink:href="#sprite3"/>
  </g>
  <defs>
    <g id="sprite0" transform="matrix(1.0, 0.0, 0.0, 1.0, 25.0, 25.0)">
      <use height="50.0" transform="matrix(1.0, 0.0, 0.0, 1.0, -25.0, -25.0)" width="50.0" xlink:href="#shape0"/>
    </g>
    <g id="shape0" transform="matrix(1.0, 0.0, 0.0, 1.0, 25.0, 25.0)">
      <path d="M25.0 0.0 Q25.0 10.3 17.7 17.65 10.35 25.0 0.0 25.0 -10.35 25.0 -17.65 17.65 -25.0 10.3 -25.0 0.0 -25.0 -10.35 -17.65 -17.7 -10.35 -25.05 0.0 -25.0 10.35 -25.05 17.7 -17.7 25.0 -10.35 25.0 0.0" fill="#ffffff" fill-rule="evenodd" stroke="none"/>
    </g>
    <g id="sprite1" transform="matrix(1.0, 0.0, 0.0, 1.0, 0.0, 0.0)">
      <use height="17.95" transform="matrix(1.0, 0.0, 0.0, 1.0, 0.0, 0.0)" width="8.65" xlink:href="#shape1"/>
    </g>
    <g id="shape1" transform="matrix(1.0, 0.0, 0.0, 1.0, 0.0, 0.0)">
      <path d="M0.0 0.0 Q3.6 0.15 6.15 2.75 8.65 5.35 8.65 9.0 8.65 12.65 6.15 15.25 3.6 17.85 0.0 17.95 L0.0 0.0" fill="url(#gradient0)" fill-rule="evenodd" stroke="none"/>
    </g>
    <linearGradient gradientTransform="matrix(0.0053, 0.0, 0.0, 0.011, 4.3, 8.95)" gradientUnits="userSpaceOnUse" id="gradient0" spreadMethod="pad" x1="-819.2" x2="819.2">
      <stop offset="0.0" stop-color="#ff9966"/>
      <stop offset="1.0" stop-color="#ff9966" stop-opacity="0.0"/>
    </linearGradient>
    <g id="sprite2" transform="matrix(1.0, 0.0, 0.0, 1.0, 0.0, 0.0)">
      <use height="16.45" transform="matrix(1.0, 0.0, 0.0, 1.0, 0.0, 0.0)" width="16.6" xlink:href="#shape2"/>
    </g>
    <g id="shape2" transform="matrix(1.0, 0.0, 0.0, 1.0, 0.0, 0.0)">
      <path d="M0.0 0.05 L8.25 8.25 16.6 0.0 Q11.0 11.55 8.4 11.55 6.75 11.55 3.2 5.8 L0.0 0.05" fill="#ff3300" fill-rule="evenodd" stroke="none"/>
      <path d="M12.0 11.65 L10.45 10.35 15.8 8.1 12.0 11.65" fill="#ff3300" fill-rule="evenodd" stroke="none"/>
      <path d="M4.75 11.65 L0.95 8.1 6.3 10.35 4.75 11.65" fill="#ff3300" fill-rule="evenodd" stroke="none"/>
      <path d="M8.3 1.85 L11.65 10.3 8.5 13.65 5.05 10.3 8.3 1.85" fill="#ff3300" fill-rule="evenodd" stroke="none"/>
      <path d="M10.1 14.5 L13.0 13.7 13.0 14.7 10.0 16.45 10.1 14.5" fill="#ff3300" fill-rule="evenodd" stroke="none"/>
      <path d="M7.2 14.5 L7.25 16.45 4.25 14.7 4.25 13.7 7.2 14.5" fill="#ff3300" fill-rule="evenodd" stroke="none"/>
    </g>
    <g id="sprite3" transform="matrix(1.0, 0.0, 0.0, 1.0, 0.0, 0.0)">
      <use height="16.45" transform="matrix(1.0, 0.0, 0.0, 1.0, 0.0, 0.0)" width="16.6" xlink:href="#shape3"/>
    </g>
    <g id="shape3" transform="matrix(1.0, 0.0, 0.0, 1.0, 0.0, 0.0)">
      <path d="M11.3 9.35 L11.5 9.9 15.8 8.1 12.0 11.65 11.1 10.9 8.5 13.65 5.65 10.9 4.75 11.65 0.95 8.1 5.2 9.9 5.5 9.15 3.2 5.8 0.0 0.05 6.5 6.55 8.3 1.85 10.15 6.4 16.6 0.0 Q13.45 6.45 11.3 9.35 M7.25 16.45 L4.25 14.7 4.25 13.7 7.2 14.5 7.25 16.45 M10.0 16.45 L10.1 14.5 13.0 13.7 13.0 14.7 10.0 16.45" fill="url(#gradient1)" fill-rule="evenodd" stroke="none"/>
    </g>
    <linearGradient gradientTransform="matrix(0.0049, 0.0, 0.0, 0.0083, 8.3, 6.8)" gradientUnits="userSpaceOnUse" id="gradient1" spreadMethod="pad" x1="-819.2" x2="819.2">
      <stop offset="0.0" stop-color="#ff9966"/>
      <stop offset="1.0" stop-color="#ff9966" stop-opacity="0.0"/>
    </linearGradient>
  </defs>
</svg>
